X:1
T:Title
%%score { ( 1 3 ) | ( 2 4 ) }
L:1/8
M:4/4
K:F
V:1 treble nm="Grand Piano"
V:3 treble 
V:2 bass 
V:4 bass 
V:1
 z4 z2[Q:1/4=100] CC | F2 F2 FCFG | A2 A2 AFA[GB] | [Ac]2 [CAc]2 [FBd]3 [D_A=B] | %4
 [Ac]6 [FBd][CAc] | [GB]2 [GB]2 [GB][EG][Ac][GB] | A2 A2 AFBA | G3 G A2 =B2 | c2- [Fc-]2 [Gc]2 CC | %9
 F2 F2 FCFG |[M:3/4] A2 A2 AF |[M:1/4] A[GB] |[M:4/4] [Ac]2 [Ac]2 [Bd]3 [_A=B] | [Ac]6 [FA][FA] | %14
 [^Fd]2 [Fc]2 BG z G |[M:3/4] [Ec]2 [EB]2 AF |[M:1/4] FA |[M:4/4] G3 F [CE]2 [=B,D]2 | %18
 C2 B2 A2 G2 | F4 F2 [B,DG]2 | [G,CE]3 [A,CF] [B,CG]2 z2 | [CEG]4 [CEc]2 [CEB]2 | %22
 [CFA]3 [B,GB] [Ac]2 z [FA] | [^Fd]2 [Fc]2 BG z G | [Ec]2 [EB]2 AFFA | G2 c2 c=B[DFA][DFB] | %26
 c2- [Fc-]2 [Gc]2 z2 | c4 c2 .F2 | [Ac]4 z4 | B4 B2 B2 |[M:3/4] [EB]3 [CFA] [CEG]2 | %31
[M:1/4] [CFA][CAc] |[M:4/4] [Af]2 f2 cA z A | d2 d2 BGAB | c4 [Bc]4 |[M:9/8] [CFA]8- [CFA] | %36
[M:1/4] [FA][Ac] |[M:4/4] [Af]2 f2 cA z A | d2 d2 BGAB | c4 [Bc]4 |[M:9/8] [CFA]8- [CFA] |] %41
V:2
 z4 z2 C,C, | F,2 F,2 F,C,F,G, | A,2 A,2 A,F,[F,CF][F,B,] | [F,A,]2 F,2 F,3 F, | z2 F4 F,F, | %5
 [C,C]2 [C,C]2 [C,C][D,C][C,C][C,C] | [F,CF]2 [F,CF]2 [F,CF][F,A,C][K:treble][F,DF][F,CF] | %7
 [G,CE]3 [G,CE] [G,=B,F]2 [G,DF]2 | z2 A,2 B,2 C,C, | F,2 F,2 F,C,F,G, |[M:3/4] A,2 A,2 A,F, | %11
[M:1/4] [F,CF][F,B,] |[M:4/4] [F,A,]2 [F,C]2 [F,F]3 [F,D] | [F,C]6 [F,C][F,A,] | %14
 [D,A,]2 [D,D]2[K:treble] [G,DG][G,B,D] z [G,B,F] |[M:3/4][K:bass] [C,G,]2 [C,C]2 [F,CF][F,A,C] | %16
[M:1/4] [F,A,C][F,CF] |[M:4/4] [G,CE]3 [G,A,D] [G,,G,]2 [G,,F,]2 | [C,E,]2 [B,D]2 [A,C]2 [G,B,]2 | %19
 [F,A,C]4 [F,A,C]2 B,,2 | C,3 C, C,2 z2 | B,2 A,2 G,2 C,2 | F,3 F, [F,A,]2 z [F,A,] | %23
 [D,A,]2 [D,D]2[K:treble] [G,DG][G,B,D] z [G,B,F] | %24
 [C,G,]2 [C,C]2 [F,CF][F,A,C][F,A,C][K:treble][E,CF] | %25
 [G,CE]2 [G,CE]2 [G,DF][G,DF][K:bass][G,,G,][G,,G,] | z2 A,2 B,2 z2 | [CF]FED [CA][K:bass]B,A,B, | %28
 z F z [F,C]- [F,C] z z2 | .G,2 B,A, [G,E]A,[K:treble][B,G]A, |[M:3/4][K:bass] .G,2 z2 z2 | %31
[M:1/4] F,F, |[M:4/4] [F,C]2[K:treble] [CA]2 [A,F][F,CF] z [F,CF] | %33
 [B,F]2 [B,F]2 [B,DF][B,DF][A,CF][G,DG] | [CA]4[K:bass] [C,C]4 |[M:9/8] [F,,F,]8- [F,,F,] | %36
[M:1/4] [F,C][F,C] |[M:4/4] [F,C]2[K:treble] [CA]2 [A,F][F,CF] z [F,CF] | %38
 [B,F]2 [B,F]2 [B,DF][B,DF][A,CF][G,DG] | [CA]4[K:bass] [C,C]4 |[M:9/8] [F,,F,]8- [F,,F,] |] %41
V:3
 x8 | x8 | x8 | x8 | C2 z2 z4 | x8 | x8 | x8 | [CE]2 z2 z4 | x8 |[M:3/4] x6 |[M:1/4] x2 | %12
[M:4/4] x8 | x8 | x8 |[M:3/4] x6 |[M:1/4] x2 |[M:4/4] x8 | x8 | x8 | x8 | x8 | x8 | x8 | x8 | x8 | %26
 [CE]2 z2 z4 | z AGB z G[Cc]-[CGc] | .C2 D[GB] [FA]2 z2 | ECDF z F z F |[M:3/4] x6 |[M:1/4] x2 | %32
[M:4/4] x8 | x8 | x8 |[M:9/8] x9 |[M:1/4] x2 |[M:4/4] x8 | x8 | x8 |[M:9/8] x9 |] %41
V:4
 x8 | x8 | x8 | x8 | F,6 z2 | x8 | x6[K:treble] x2 | x8 | C,6 z2 | x8 |[M:3/4] x6 |[M:1/4] x2 | %12
[M:4/4] x8 | x8 | x4[K:treble] x4 |[M:3/4][K:bass] x6 |[M:1/4] x2 |[M:4/4] x8 | x8 | x8 | x8 | x8 | %22
 x8 | x4[K:treble] x4 | x7[K:treble] x | x6[K:bass] x2 | C,6 z2 | F,4 A,2[K:bass] z2 | F,2 C,2 z4 | %29
 C,4 z2[K:treble] G,2 |[M:3/4][K:bass] C,- [C,C]2 C, C,2 |[M:1/4] x2 |[M:4/4] x2[K:treble] x6 | %33
 x8 | x4[K:bass] x4 |[M:9/8] x9 |[M:1/4] x2 |[M:4/4] x2[K:treble] x6 | x8 | x4[K:bass] x4 | %40
[M:9/8] x9 |] %41

